X:66
T:Turpin Hero
S:Bernie Waugh
R:Reel
M:4/4
L:1/8
K:G minor
D2|:\
"Gm"G2D2 "Dm"A2D2|"Gm"BABc "Dm"d2D2|\
"Gm"G2DG "F"A2D2|"Bb"BABc "Dm"d2=ef|
"Gm"g2d2 "F"f2d2|"Eb"gag=e "Dm"f2ga|\
"C"g2d2 dcBd|"F"cAGF "Gm"G2D2:|
|:\
"Cm"G4 d4|"F"c4 cAGF|"Cm"GABc dcBd|"F"cAGF "Gm"G2D2|
"Cm"G2BG dGBd|"Dm"c2cd cAGF|"Eb"GABc dcBd|"G"cAGF "Gm"G4:|
